icons/editor-bezier-2-filled.svg

<svg width="24" height="24" viewBox="0 0 24 24" fill="none" xmlns="http://www.w3.org/2000/svg">
<g id="bezier-02">
<path id="Icon" d="M9.12675 7.63427C9.67904 7.63427 10.1268 7.18655 10.1268 6.63427C10.1268 6.08198 9.67904 5.63427 9.12675 5.63427V7.63427ZM3.62337 5.63427C3.07108 5.63427 2.62337 6.08198 2.62337 6.63427C2.62337 7.18655 3.07108 7.63427 3.62337 7.63427V5.63427ZM20.4004 7.63427C20.9527 7.63427 21.4004 7.18655 21.4004 6.63427C21.4004 6.08198 20.9527 5.63427 20.4004 5.63427V7.63427ZM14.6301 5.63427C14.0779 5.63427 13.6301 6.08198 13.6301 6.63427C13.6301 7.18655 14.0779 7.63427 14.6301 7.63427V5.63427ZM10.5165 5.7998H13.2311V3.7998H10.5165V5.7998ZM13.1359 5.70466V8.41925H15.1359V5.70466H13.1359ZM13.2311 8.32411H10.5165V10.3241H13.2311V8.32411ZM10.6116 8.41925V5.70466H8.61164V8.41925H10.6116ZM10.5165 8.32411C10.569 8.32411 10.6116 8.3667 10.6116 8.41925H8.61164C8.61164 9.47127 9.46448 10.3241 10.5165 10.3241V8.32411ZM13.1359 8.41925C13.1359 8.36671 13.1785 8.32411 13.2311 8.32411V10.3241C14.2831 10.3241 15.1359 9.47127 15.1359 8.41925H13.1359ZM13.2311 5.7998C13.1785 5.7998 13.1359 5.75721 13.1359 5.70466H15.1359C15.1359 4.65264 14.2831 3.7998 13.2311 3.7998V5.7998ZM10.5165 3.7998C9.46448 3.7998 8.61164 4.65264 8.61164 5.70466H10.6116C10.6116 5.75721 10.569 5.7998 10.5165 5.7998V3.7998ZM3.30525 15.5836H6.01983V13.5836H3.30525V15.5836ZM5.92469 15.4885V18.203H7.92469V15.4885H5.92469ZM6.01983 18.1079H3.30525V20.1079H6.01983V18.1079ZM3.40039 18.203V15.4885H1.40039V18.203H3.40039ZM3.30525 18.1079C3.3578 18.1079 3.40039 18.1505 3.40039 18.203H1.40039C1.40039 19.2551 2.25322 20.1079 3.30525 20.1079V18.1079ZM5.92469 18.203C5.92469 18.1505 5.96728 18.1079 6.01983 18.1079V20.1079C7.07186 20.1079 7.92469 19.2551 7.92469 18.203H5.92469ZM6.01983 15.5836C5.96729 15.5836 5.92469 15.541 5.92469 15.4885H7.92469C7.92469 14.4364 7.07186 13.5836 6.01983 13.5836V15.5836ZM3.30525 13.5836C2.25323 13.5836 1.40039 14.4364 1.40039 15.4885H3.40039C3.40039 15.541 3.3578 15.5836 3.30525 15.5836V13.5836ZM17.9809 15.5836H20.6955V13.5836H17.9809V15.5836ZM20.6004 15.4885V18.203H22.6004V15.4885H20.6004ZM20.6955 18.1079H17.9809V20.1079H20.6955V18.1079ZM18.0761 18.203V15.4885H16.0761V18.203H18.0761ZM17.9809 18.1079C18.0335 18.1079 18.0761 18.1505 18.0761 18.203H16.0761C16.0761 19.2551 16.9289 20.1079 17.9809 20.1079V18.1079ZM20.6004 18.203C20.6004 18.1505 20.643 18.1079 20.6955 18.1079V20.1079C21.7476 20.1079 22.6004 19.2551 22.6004 18.203H20.6004ZM20.6955 15.5836C20.643 15.5836 20.6004 15.541 20.6004 15.4885H22.6004C22.6004 14.4364 21.7476 13.5836 20.6955 13.5836V15.5836ZM17.9809 13.5836C16.9289 13.5836 16.0761 14.4364 16.0761 15.4885H18.0761C18.0761 15.541 18.0335 15.5836 17.9809 15.5836V13.5836ZM9.12675 5.63427H3.62337V7.63427H9.12675V5.63427ZM20.4004 5.63427H14.6301V7.63427H20.4004V5.63427ZM3.84634 13.3606V14.5836H5.84634V13.3606H3.84634ZM18.522 13.3606V14.5836H20.522V13.3606H18.522ZM5.84634 13.3606C5.84634 11.016 7.11899 8.96741 9.01599 7.87006L8.01454 6.13885C5.52496 7.57899 3.84634 10.2732 3.84634 13.3606H5.84634ZM15.3524 7.87006C17.2494 8.96741 18.522 11.016 18.522 13.3606H20.522C20.522 10.2732 18.8434 7.57899 16.3538 6.13885L15.3524 7.87006Z" fill="black"/>
</g>
</svg>

<svg xmlns="http://www.w3.org/2000/svg" width="24" height="24" fill="none" viewBox="0 0 24 24"><path fill="currentColor" d="M9.127 7.634a1 1 0 1 0 0-2zm-5.504-2a1 1 0 1 0 0 2zm16.777 2a1 1 0 1 0 0-2zm-5.77-2a1 1 0 0 0 0 2zm-4.113.166h2.714v-2h-2.714zm2.619-.095v2.714h2V5.705zm.095 2.62h-2.714v2h2.714zm-2.62.094V5.705h-2v2.714zm-.095-.095c.053 0 .096.043.096.095h-2c0 1.052.852 1.905 1.905 1.905zm2.62.095c0-.052.043-.095.095-.095v2a1.905 1.905 0 0 0 1.905-1.905zm.095-2.62a.095.095 0 0 1-.095-.094h2A1.905 1.905 0 0 0 13.23 3.8zm-2.714-2a1.905 1.905 0 0 0-1.905 1.906h2a.095.095 0 0 1-.095.095zM3.305 15.585H6.02v-2H3.305zm2.62-.095v2.714h2v-2.714zm.095 2.619H3.305v2H6.02zm-2.62.095v-2.714h-2v2.714zm-.095-.095c.053 0 .095.043.095.095h-2c0 1.052.853 1.905 1.905 1.905zm2.62.095c0-.052.042-.095.095-.095v2a1.905 1.905 0 0 0 1.905-1.905zm.095-2.62a.095.095 0 0 1-.095-.095h2a1.905 1.905 0 0 0-1.905-1.904zm-2.715-2A1.905 1.905 0 0 0 1.4 15.49h2a.095.095 0 0 1-.095.095zm14.676 2h2.714v-2h-2.714zm2.62-.095v2.715h2v-2.714zm.095 2.62H17.98v2h2.714zm-2.62.095v-2.714h-2v2.714zm-.095-.095c.052 0 .095.043.095.095h-2c0 1.052.853 1.905 1.905 1.905zm2.62.095c0-.052.042-.095.095-.095v2a1.905 1.905 0 0 0 1.904-1.905zm.095-2.62a.095.095 0 0 1-.096-.095h2a1.905 1.905 0 0 0-1.905-1.904zm-2.715-2a1.905 1.905 0 0 0-1.905 1.906h2a.095.095 0 0 1-.095.095zM9.127 5.635H3.623v2h5.504zm11.273 0h-5.77v2h5.77zM3.846 13.361v1.223h2V13.36zm14.676 0v1.223h2V13.36zm-12.676 0a6.34 6.34 0 0 1 3.17-5.49L8.015 6.138a8.34 8.34 0 0 0-4.169 7.222zm9.506-5.49a6.34 6.34 0 0 1 3.17 5.49h2a8.34 8.34 0 0 0-4.168-7.222z"/></svg>
